icons/resharper-light.svg

<svg width="256" height="256" viewBox="0 0 256 256" fill="none" xmlns="http://www.w3.org/2000/svg">
<g id="Resharper" clip-path="url(#clip0_8_380)">
<path id="Vector" d="M196 0H60C26.8629 0 0 26.8629 0 60V196C0 229.137 26.8629 256 60 256H196C229.137 256 256 229.137 256 196V60C256 26.8629 229.137 0 196 0Z" fill="#F4F2ED"/>
<g id="Group 19">
<path id="Vector_2" d="M212.435 31H108.454C105.983 31 103.567 31.7283 101.508 33.0939C99.4483 34.4595 97.8372 36.4019 96.8758 38.6781L48.7382 152.701C48.0708 154.28 47.7338 155.978 47.748 157.692L48.205 213.538C48.2332 216.854 49.5701 220.024 51.9248 222.358C54.2794 224.692 57.461 226.001 60.7764 226H114.603C117.056 225.999 119.456 225.281 121.507 223.934L219.339 159.618C221.079 158.474 222.508 156.915 223.497 155.082C224.486 153.248 225.003 151.198 225.003 149.115V43.5684C225.003 41.9179 224.678 40.2835 224.046 38.7587C223.415 37.2338 222.489 35.8483 221.322 34.6812C220.155 33.5141 218.769 32.5883 217.244 31.9567C215.719 31.3251 214.085 31 212.435 31Z" fill="url(#paint0_linear_8_380)"/>
<path id="Vector_3" d="M75.6635 49.2812H42.5684C39.235 49.2812 36.0382 50.6054 33.6812 52.9624C31.3242 55.3195 30 58.5163 30 61.8496V100.137C30 100.746 30.0427 101.355 30.1341 101.959L46.7334 215.257C47.1715 218.242 48.6688 220.97 50.9516 222.942C53.2345 224.914 56.1508 226 59.1677 226H106.08C107.731 226 109.366 225.675 110.892 225.043C112.417 224.411 113.803 223.484 114.97 222.317C116.137 221.149 117.063 219.763 117.694 218.237C118.325 216.712 118.65 215.077 118.649 213.426L118.637 157.046C118.637 155.748 118.436 154.459 118.039 153.225L87.6377 58.0288C86.827 55.4896 85.2301 53.2738 83.0778 51.7015C80.9254 50.1291 78.329 49.2816 75.6635 49.2812Z" fill="url(#paint1_linear_8_380)"/>
<path id="Vector_4" d="M80.1211 49.2813H42.7664C41.0994 49.2814 39.449 49.6133 37.9115 50.2574C36.3739 50.9016 34.9798 51.8452 33.8105 53.0333C32.6411 54.2214 31.7197 55.6302 31.1001 57.1778C30.4804 58.7254 30.1748 60.3808 30.2011 62.0477L30 94.9844C30.0579 98.5827 32.3948 102.693 35.1279 105.039L151.394 204.69C153.67 206.64 156.573 207.716 159.571 207.716H194.153C197.486 207.715 200.682 206.39 203.039 204.033C205.395 201.676 206.719 198.48 206.719 195.147V161.623C206.719 157.997 205.153 154.551 202.426 152.165L88.3964 52.3891C86.1054 50.385 83.1649 49.2807 80.1211 49.2813Z" fill="#FDB60D"/>
<path id="Vector_5" d="M188.438 67.5625H66.5625V189.438H188.438V67.5625Z" fill="black"/>
<path id="Vector_6" d="M130.547 165.062H81.7969V174.203H130.547V165.062ZM81.8334 82.7725H101.461C104.661 82.7725 107.479 83.3605 109.92 84.5366C112.357 85.7127 114.234 87.3671 115.553 89.503C116.869 91.6358 117.528 94.1038 117.528 96.913C117.528 99.7222 116.857 102.245 115.517 104.408C114.182 106.578 112.275 108.253 109.804 109.439C107.333 110.627 104.466 111.218 101.199 111.218H90.7486V128.494H81.8334V82.7725ZM104.807 102.973C105.928 102.419 106.793 101.623 107.403 100.591C108.012 99.5546 108.317 98.3511 108.317 96.98C108.317 95.6089 108.012 94.3841 107.403 93.3725C106.785 92.3524 105.883 91.5349 104.807 91.0203C103.686 90.4658 102.375 90.1886 100.87 90.1886H90.7455V103.808H100.87C102.375 103.808 103.686 103.528 104.807 102.973ZM96.7905 108.345H106.522L118.512 128.5H108.289L96.7936 108.348L96.7905 108.345ZM160.44 111.023V116.837L123.274 116.901V111.087L160.44 111.023ZM163.706 94.3658V100.246L126.54 100.307V94.4298L163.706 94.3658ZM137.025 82.7725H143.527L133.728 128.494H127.226L137.025 82.7725ZM153.255 82.7725H159.754L149.959 128.494H143.46L153.255 82.7725Z" fill="white"/>
</g>
</g>
<defs>
<linearGradient id="paint0_linear_8_380" x1="43.1777" y1="213.608" x2="221.712" y2="35.0737" gradientUnits="userSpaceOnUse">
<stop offset="0.29" stop-color="#FF45ED"/>
<stop offset="0.7" stop-color="#FF0A67"/>
</linearGradient>
<linearGradient id="paint1_linear_8_380" x1="28.8087" y1="54.3726" x2="104.322" y2="217.24" gradientUnits="userSpaceOnUse">
<stop offset="0.3" stop-color="#FDB60D"/>
<stop offset="0.54" stop-color="#FF45ED"/>
</linearGradient>
<clipPath id="clip0_8_380">
<rect width="256" height="256" fill="white"/>
</clipPath>
</defs>
</svg>

<svg xmlns="http://www.w3.org/2000/svg" width="256" height="256" fill="none"><g id="Resharper" clip-path="url(#clip0_8_380)"><path id="Vector" fill="#F4F2ED" d="M196 0H60C26.863 0 0 26.863 0 60v136c0 33.137 26.863 60 60 60h136c33.137 0 60-26.863 60-60V60c0-33.137-26.863-60-60-60"/><g id="Group 19"><path id="Vector_2" fill="url(#paint0_linear_8_380)" d="M212.435 31H108.454a12.57 12.57 0 0 0-11.578 7.678L48.738 152.701a12.55 12.55 0 0 0-.99 4.991l.457 55.846A12.57 12.57 0 0 0 60.776 226h53.827a12.6 12.6 0 0 0 6.904-2.066l97.832-64.316a12.58 12.58 0 0 0 5.664-10.503V43.568a12.56 12.56 0 0 0-3.681-8.887A12.57 12.57 0 0 0 212.435 31"/><path id="Vector_3" fill="url(#paint1_linear_8_380)" d="M75.664 49.281H42.568A12.57 12.57 0 0 0 30 61.85v38.287q-.001.915.134 1.822l16.6 113.298A12.57 12.57 0 0 0 59.167 226h46.912a12.58 12.58 0 0 0 8.89-3.683 12.57 12.57 0 0 0 3.679-8.891l-.012-56.38c0-1.298-.201-2.587-.598-3.821l-30.4-95.196a12.57 12.57 0 0 0-11.975-8.748"/><path id="Vector_4" fill="#FDB60D" d="M80.121 49.281H42.766a12.567 12.567 0 0 0-12.565 12.767L30 94.984c.058 3.599 2.395 7.709 5.128 10.055l116.266 99.651a12.58 12.58 0 0 0 8.177 3.026h34.582a12.57 12.57 0 0 0 12.566-12.569v-33.524c0-3.626-1.566-7.072-4.293-9.458L88.396 52.389a12.57 12.57 0 0 0-8.275-3.108"/><path id="Vector_5" fill="#000" d="M188.438 67.563H66.563v121.875h121.875z"/><path id="Vector_6" fill="#fff" d="M130.547 165.062h-48.75v9.141h48.75zm-48.714-82.29h19.628q4.799 0 8.459 1.765 3.655 1.763 5.633 4.966c1.316 2.133 1.975 4.6 1.975 7.41s-.671 5.332-2.011 7.495c-1.335 2.17-3.242 3.845-5.713 5.031q-3.706 1.78-8.605 1.779h-10.45v17.276h-8.916zm22.974 20.201q1.681-.832 2.596-2.382.914-1.554.914-3.611c0-1.371-.305-2.596-.914-3.608a6.13 6.13 0 0 0-2.596-2.352q-1.68-.831-3.937-.831H90.746v13.619h10.124q2.256-.001 3.937-.835m-8.017 5.372h9.732l11.99 20.155h-10.223l-11.495-20.152zm63.65 2.678v5.814l-37.166.064v-5.814zm3.266-16.657v5.88l-37.166.061V94.43zm-26.681-11.594h6.502l-9.799 45.722h-6.502zm16.23 0h6.499l-9.795 45.722h-6.499z"/></g></g><defs><linearGradient id="paint0_linear_8_380" x1="43.178" x2="221.712" y1="213.608" y2="35.074" gradientUnits="userSpaceOnUse"><stop offset=".29" stop-color="#FF45ED"/><stop offset=".7" stop-color="#FF0A67"/></linearGradient><linearGradient id="paint1_linear_8_380" x1="28.809" x2="104.322" y1="54.373" y2="217.24" gradientUnits="userSpaceOnUse"><stop offset=".3" stop-color="#FDB60D"/><stop offset=".54" stop-color="#FF45ED"/></linearGradient><clipPath id="clip0_8_380"><path fill="#fff" d="M0 0h256v256H0z"/></clipPath></defs></svg>
